X:1
T:The Glorious Gospel Train
T:John Edmond Thomas
T:The Glorious Gospel Train
T:Public Domain
T:Public Domain
T:Public Domain
T:Public Domain
C:John Edmond Thomas
Z:Public Domain
%%score ( 1 2 ) ( 3 4 )
L:1/8
M:4/4
K:Bb
V:1 treble 
V:2 treble 
V:3 bass 
V:4 bass 
V:1
 [DF]>[CE] x6 | [B,D]>[DF] [FB]>[Fc] [Fd]<[Fd] [DB]>[FB] | [Gc]>[GB] [GB]>[EG] [DF]2 [DF]>[CE] | %3
w: 1.~Are you|at your sta- tion read- y, For the|near ap- proach- ing train? Are you|
w: 2.~Has your|ti- tle been re- cord- ed, That no|quest- ion can be made? Does your|
w: 3.~Are your|gar- ments nice- ly fit- ted, That ac-|cept- ed you may be, As a|
w: 4.~’Tis the|on- ly sig- nal, bro- ther, That will|make your pas- sage sure, That will|
 [B,D]>[DF] [FB]>[Fc] [Fd]<[Fd] [FB]>[FB] | [=Ed]>[Ec] [Ec]>[EB] [Fc]2 [Fd]>[F=e] | %5
w: ful- ly con- tem- plat- ing That a|pass you will ob- tain? Is there|
w: prep- a- ra- tion war- rant, That you|shall not be de- layed? When you|
w: guest on board for Heav- en, Trav- ’ling|for e- ter- ni- ty? Do you|
w: stop the might- y en- gine, And a|seat to you se- cure; That will|
 [Ff]>F [DB]>[Ec] [Fd]<[Fd] [FB]>[FB] | [Gc]>[GB] [GB]>[EG] [DF]2 [DF]>[B,E] | %7
w: some im- port- ant mat- ter, You have|be- hind un- done, That will keep|
w: see the head- light gleam- ings, As a-|the curves they climb, Have you an-|
w: hold the blood- stained ban- ner, Of Em-|uel in your hand, With your claims|
w: give you close con- nect- ion, And a|er fail- ing hand, That will take|
 [B,D]>[DF] [FB]>[Fc] [Fd]<[Fd] [FB]>[Gc] | [Fd]>[Fd] [Fd]>[Ec] [DB]2 x2 || %9
w: you hes- i- tat- ing, Till too late|to make the run? *|
w: y fears and doubt- ings, That you’ll not|get in on time? O|
w: in- scribed up- on it, And a ride|for Heav’n de- mand? *|
w: you safe- ly o- ver, To the glo-|ry spir- it land. *|
"^Refrain" ([DB]/[Ec]/)[Fd] x6 | [Bf]<(B B>B B<[Bf]) [Fd]>[Fc] | %11
w: ||
w: be * read-|y for * * * * the glor-|
w: ||
w: ||
 [GB]>[Gc] [GB]>[EG] [DF]2 [DF]>[CE] | [B,D]>[DF] [FB]>[Fc] [Fd]<[Fd] [FB]>[FB] | %13
w: ||
w: Gos- pel train, Quick- ly make your|prep- a- ra- tion, And your pass- port|
w: ||
w: ||
 [=Ed]<[Ec] [Ec]>[E=B] [Fc]2 ([EB]/[_Ec]/)[Fd] | [Bf]<(B B>B B<[Bf]) [Fd]>[Fc] | %15
w: ||
w: have in hand; O be read- * y|for the * * * * glor- ious|
w: ||
w: ||
 [GB]>[Gc] [GB]>[EG] [DF]2 [DF]>[CE] | [B,D]>[DF] [FB]>[Fc] [Fd]<[Fd] [FB]>[Gc] | %17
w: ||
w: pel train, It will take you safe-|ly o- ver, To the glor- y spir-|
w: ||
w: ||
 [Fd]>[Fd] [Fd]>[Ec] [DB]2 |] %18
w: |
w: it land. * * *|
w: |
w: |
V:2
 x8 | x8 | x8 | x8 | x8 | x3/2 F/ x6 | x8 | x8 | x8 || x8 | x/ f4- x7/2 | x8 | x8 | x8 | %14
w: |||||left|||||||||
w: |||||round|||||ious||||
w: |||||man-|||||||||
w: |||||nev-|||||||||
 x/ f4- x7/2 | x8 | x8 | x6 |] %18
w: ||||
w: Gos-||||
w: ||||
w: ||||
V:3
 [B,,B,]>[B,,B,] [B,,F,]>[B,,B,] [D,B,]>[F,A,] B,<B, | B,>[B,D] [E,E]>[E,E] [E,E]>[E,B,] [B,,B,]2 | %2
w: ~ ~ ~ ~ ~ ~ ~ ~|~ ~ ~ ~ ~ ~ ~|
 [B,,B,]>[B,,B,] [B,,F,]>[B,,B,] [D,B,]>[F,A,] B,<B, | %3
w: ~ ~ ~ ~ ~ ~ ~ ~|
 [D,B,]>[D,B,] [C,B,]>[C,B,] [C,G,]>[C,G,] [F,A,]2 | B,>[B,C] [B,D]>[B,D] B,>B, B,<B, | %5
w: ~ ~ ~ ~ ~ ~ ~|~ ~ ~ ~ ~ ~ ~ ~|
 [D,B,]>[D,B,] [E,E]>[E,E] [E,E]>[E,B,] [B,,B,]2 | %6
w: ~ ~ ~ ~ ~ ~ ~|
 [B,,B,]>[B,,B,] [B,,F,]>[B,,B,] [D,B,]>[F,A,] B,<B, | %7
w: ~ ~ ~ ~ ~ O be read-|
 [D,B,]>[E,B,] [F,B,]>[F,B,] [F,A,]>[F,A,] [B,,B,]2 | B,>B, [B,D]<[B,D] [B,D]>[B,D] [B,D]<[B,D] || %9
w: the com- ing of the glor- ious|Gos- pel train, ~ ~ ~ ~ ~|
 [B,,B,]>[D,B,] [E,E]>[E,E] [E,E]>[E,B,] [B,,B,]2 | %10
w: ~ ~ ~ ~ ~ ~ ~|
 [B,,B,]>[B,,B,] [B,,F,]>[B,,B,] [D,B,]>[F,A,] B,<B, | %11
w: ~ O be read- y for the com-|
 [D,B,]>[D,B,] [C,B,]<[C,B,] [C,G,]>[C,G,] [F,A,]2 | B,>B, [B,D]<[B,D] [B,D]>[B,D] [B,D]<[B,D] | %13
w: the glor- ious Gos- pel train, *||
 [B,,B,]>[D,B,] [E,E]>[E,E] [E,E]>[E,B,] [B,,B,]2 | %14
w: |
 [B,,B,]>[B,,B,] [B,,F,]>[B,,B,] [D,B,]>[F,A,] B,<B, | %15
w: |
 [D,B,]>[E,B,] [F,B,]>[F,B,] [F,A,]>[F,A,] [B,,B,]2 | x8 | x6 |] %18
w: |||
V:4
 x6 B,<B, | B,3/2 x13/2 | x6 B,<B, | x8 | B,3/2 x B,3/2 B,/B,<B, x3/2 | x8 | x6 B,<B, | x8 | %8
w: ~ ~|~|~ ~||~ ~ ~ ~ ~||y for||
 B,>B, x6 || x8 | x6 B,<B, | x8 | B,>B, x6 | x8 | x6 B,<B, | x8 | x8 | x6 |] %18
w: ~ ~||ing of||||||||

